X:1
T:Geordie
M:3/4
L:1/8
K:C
 D| D3/2 E/2 G2G-E| D3/2 E/2 G3 G| A3/2 B/2 c3 e| dG z2 z G| AB c2 c-d/2-e/2|\
 dB A2 GA| BG E3 D| GD z2 z||
